svg/color/fet.svg

<svg width="64" height="65" viewBox="0 0 64 65" fill="none" xmlns="http://www.w3.org/2000/svg">
<rect y="0.303711" width="64" height="64" rx="32" fill="#202944"/>
<rect x="0.5" y="0.803711" width="63" height="63" rx="31.5" stroke="#070B14" stroke-opacity="0.15"/>
<path d="M25.511 15.2377H29.5999V19.5043H25.511V15.2377ZM15.1999 15.2377H19.4666V19.5043H15.1999V15.2377ZM19.2888 25.5488V29.8154H15.0221V25.5488H19.2888ZM18.2221 49.0154H16.4443V47.4154H18.0443V49.0154H18.2221ZM19.4666 40.4821H15.1999V36.3932H19.4666V40.4821ZM28.5333 49.0154H26.9333V47.4154H28.5333V49.0154ZM28.5333 39.0599H26.9333V37.4599H28.5333V39.0599ZM29.7777 29.9932H25.511V25.7266H29.7777V29.9932ZM38.8444 49.0154H37.2444V47.4154H38.8444V49.0154ZM38.8444 39.0599H37.2444V37.4599H38.8444V39.0599ZM38.8444 28.571H37.2444V26.971H38.8444V28.571ZM40.2666 19.5043H36V15.2377H40.2666V19.5043ZM49.3333 49.0154H47.7333V47.4154H49.3333V49.0154ZM49.3333 39.0599H47.7333V37.4599H49.3333V39.0599ZM49.3333 28.571H47.7333V26.971H49.3333V28.571ZM49.3333 18.2599H47.7333V16.6599H49.3333V18.2599Z" fill="white"/>
</svg>

<svg xmlns="http://www.w3.org/2000/svg" width="64" height="65" fill="none" viewBox="0 0 64 65"><rect width="64" height="64" y=".304" fill="#202944" rx="32"/><rect width="63" height="63" x=".5" y=".804" stroke="#070B14" stroke-opacity=".15" rx="31.5"/><path fill="#fff" d="M25.511 15.238H29.6v4.266h-4.09zm-10.311 0h4.267v4.266H15.2zm4.089 10.31v4.267h-4.267V25.55zm-1.067 23.467h-1.778v-1.6h1.6v1.6zm1.245-8.533H15.2v-4.089h4.267zm9.066 8.533h-1.6v-1.6h1.6zm0-9.955h-1.6v-1.6h1.6zm1.245-9.067H25.51v-4.266h4.267zm9.066 19.022h-1.6v-1.6h1.6zm0-9.955h-1.6v-1.6h1.6zm0-10.489h-1.6v-1.6h1.6zm1.423-9.067H36v-4.266h4.267zm9.066 29.511h-1.6v-1.6h1.6zm0-9.955h-1.6v-1.6h1.6zm0-10.489h-1.6v-1.6h1.6zm0-10.311h-1.6v-1.6h1.6z"/></svg>
